brandFactory_export/1.Light/Audio_Sonido_1Light.svg

<?xml version="1.0" encoding="UTF-8"?>
<svg width="24px" height="24px" viewBox="0 0 24 24" version="1.1" xmlns="http://www.w3.org/2000/svg" xmlns:xlink="http://www.w3.org/1999/xlink">
    <title>1.Light/Audio_Sonido_1Light</title>
    <g id="Symbols" stroke="none" stroke-width="1" fill="none" fill-rule="evenodd">
        <g id="1.Light/Audio_Sonido_1Light" fill="#5CB615" fill-rule="nonzero">
            <path d="M20.3428571,4.06218487 C20.4739496,4.18319328 23.5663866,7.05042017 23.6201681,11.9546218 C23.6268908,12.1294118 23.794958,16.9529412 20.3865546,20.0319328 C20.205042,20.1966387 19.9798319,20.2773109 19.7478992,20.2773109 C19.4857143,20.2773109 19.2235294,20.1663866 19.0319328,19.9546218 C18.6823529,19.5546218 18.712605,18.9428571 19.1092437,18.5865546 C21.8453782,16.1159664 21.7042017,12.0487395 21.7008403,12.0084034 C21.6571429,7.91092437 19.0857143,5.52436975 19.0588235,5.50084034 C18.6655462,5.14117647 18.6319328,4.52941176 18.9848739,4.13277311 C19.3445378,3.7394958 19.9563025,3.70588235 20.3428571,4.06218487 L20.3428571,4.06218487 Z M19.2033613,12.0016807 C19.210084,12.1058824 19.3210084,15.3193277 17.0420168,17.3764706 C16.8605042,17.5411765 16.6319328,17.6218487 16.4033613,17.6218487 C16.1411765,17.6218487 15.8789916,17.5142857 15.687395,17.2991597 C15.3344538,16.902521 15.3680672,16.2907563 15.7647059,15.9310924 C17.3546218,14.4957983 17.287395,12.0722689 17.2840336,12.0487395 C17.2605042,9.63865546 15.7915966,8.24369748 15.7277311,8.18655462 C15.3378151,7.82689076 15.3109244,7.21512605 15.6672269,6.81848739 C16.0201681,6.42521008 16.6218487,6.39495798 17.0117647,6.74789916 C17.102521,6.83193277 19.1697479,8.74453782 19.2033613,12.0016807 L19.2033613,12.0016807 Z M11.989916,18.6134454 L11.989916,4.95630252 C9.41512605,4.99663866 7.59327731,5.85042017 6.4907563,7.50084034 C6.47058824,7.55462185 6.41680672,7.58151261 6.38655462,7.62857143 C6.33277311,7.72941176 6.26554622,7.81680672 6.17815126,7.8907563 C6.16806723,7.89747899 6.16134454,7.90420168 6.1512605,7.91092437 C5.98655462,8.04201681 5.78823529,8.13277311 5.56302521,8.13277311 L1.91596639,8.13613445 L1.92605042,15.4504202 L5.55294118,15.4470588 C5.92268908,15.4470588 6.23529412,15.6689076 6.39663866,15.9781513 C6.41344538,16.0084034 6.45042017,16.0218487 6.46386555,16.0588235 C7.55630252,17.7226891 9.41176471,18.5798319 11.989916,18.6134454 Z M12.0840336,3.01680672 C13.1294118,3.01680672 13.9058824,3.80336134 13.9058824,4.76470588 L13.9058824,18.8117647 C13.9058824,19.7697479 13.1361345,20.5495798 12.1882353,20.5495798 C8.24537815,20.5495798 6.16134454,18.9193277 5.05546218,17.3798319 L0.974789916,17.3831933 C0.447058824,17.3831933 0.0168067227,16.9529412 0.0168067227,16.4184874 L0.00336134454,7.16806723 C0.00336134454,6.9092437 0.104201681,6.66386555 0.285714286,6.48235294 C0.463865546,6.30084034 0.705882353,6.2 0.961344538,6.2 L5.07226891,6.19663866 C6.18151261,4.65042017 8.25882353,3.01680672 12.0840336,3.01680672 Z" id="Audio_Sonido_1Light"></path>
        </g>
    </g>
</svg>

<svg width="24" height="24" viewBox="0 0 24 24" xmlns="http://www.w3.org/2000/svg"><path d="M20.343 4.062c.13.121 3.223 2.988 3.277 7.893.007.174.175 4.998-3.233 8.077a.94.94 0 01-.64.245.967.967 0 01-.715-.322.977.977 0 01.077-1.368c2.736-2.471 2.595-6.538 2.592-6.579-.044-4.097-2.615-6.484-2.642-6.507a.978.978 0 01-.074-1.368.962.962 0 011.358-.07zm-1.14 7.94c.007.104.118 3.317-2.161 5.374a.955.955 0 01-1.355-.077.975.975 0 01.078-1.368c1.59-1.435 1.522-3.859 1.519-3.882-.023-2.41-1.492-3.805-1.556-3.862a.977.977 0 01-.06-1.369.949.949 0 011.344-.07c.09.084 2.158 1.997 2.191 5.254zm-7.213 6.611V4.956c-2.575.04-4.397.894-5.5 2.545-.02.054-.073.08-.103.128a.877.877 0 01-.209.262c-.01.006-.017.013-.027.02a.942.942 0 01-.588.222l-3.647.003.01 7.314 3.627-.003c.37 0 .682.222.844.531.016.03.053.044.067.08 1.092 1.665 2.948 2.522 5.526 2.555zm.094-15.596c1.045 0 1.822.786 1.822 1.748v14.047a1.73 1.73 0 01-1.718 1.738c-3.943 0-6.027-1.63-7.133-3.17l-4.08.003a.961.961 0 01-.958-.965l-.014-9.25A.966.966 0 01.961 6.2l4.111-.003c1.11-1.547 3.187-3.18 7.012-3.18z" fill="#5CB615" fill-rule="nonzero"/></svg>
